{"type":"map","version":"1.10","tiledversion":"1.10.2","orientation":"orthogonal","renderorder":"right-down","infinite":false,"width":20,"height":12,"tilewidth":16,"tileheight":16,"nextlayerid":6,"nextobjectid":3,"tilesets":[{"firstgid":1,"name":"interior","image":"../../assets/tiles/interior.png","imagewidth":256,"imageheight":64,"tilewidth":16,"tileheight":16,"tilecount":64,"columns":16,"margin":0,"spacing":0}],"layers":[{"id":1,"name":"floor","type":"tilelayer","width":20,"height":12,"x":0,"y":0,"opacity":1,"visible":true,"data":[6,5,5,5,6,5,5,6,6,5,6,5,5,5,5,5,6,6,5,5,5,5,5,5,5,5,5,5,5,5,6,5,5,5,6,5,6,5,6,5,5,6,5,5,6,5,5,5,5,5,6,5,6,6,6,6,5,6,5,5,5,5,5,6,5,5,5,5,5,5,6,5,5,5,6,5,5,5,5,5,5,5,5,5,5,5,5,6,5,6,5,5,5,6,6,6,5,5,5,5,5,6,5,5,5,6,5,5,6,5,5,5,5,5,5,5,6,6,5,5,5,5,5,5,5,6,5,6,5,5,5,5,5,5,5,5,5,5,5,5,5,5,5,5,5,5,5,5,6,5,5,5,5,6,6,5,5,6,5,5,6,6,5,6,6,6,5,5,5,6,5,6,5,5,6,5,5,5,5,5,6,5,6,6,5,5,5,5,5,5,5,5,5,5,6,5,5,5,5,5,5,6,5,6,5,5,5,5,5,6,5,6,6,5,6,6,6,5,5,5,6,5,6,6,6,5,5,6,5,5,13,6,6,5,5,5,5,6,6,6]},{"id":2,"name":"walls","type":"tilelayer","width":20,"height":12,"x":0,"y":0,"opacity":1,"visible":true,"data":[8,8,8,8,8,8,8,8,8,8,8,8,8,8,8,8,8,8,8,8,11,11,11,11,11,11,11,11,11,11,11,11,11,11,11,11,11,11,11,11,11,0,0,0,0,0,0,0,0,0,0,0,0,0,0,0,0,0,0,11,11,0,0,0,0,0,0,0,0,0,0,0,0,0,0,0,0,0,0,11,11,0,0,0,0,0,0,0,0,0,0,0,0,0,0,0,0,0,0,11,11,0,0,0,0,0,0,0,0,0,0,0,0,0,0,0,0,0,0,11,11,0,0,0,0,0,0,0,0,0,0,0,0,0,0,0,0,0,0,11,11,0,0,0,0,0,0,0,0,0,0,0,0,0,0,0,0,0,0,11,11,0,0,0,0,0,0,0,0,0,0,0,0,0,0,0,0,0,0,11,11,0,0,0,0,0,0,0,0,0,0,0,0,0,0,0,0,0,0,11,11,0,0,0,0,0,0,0,0,0,0,0,0,0,0,0,0,0,0,11,11,11,11,11,11,11,11,11,11,12,0,12,11,11,11,11,11,11,11,11]},{"id":3,"name":"props","type":"tilelayer","width":20,"height":12,"x":0,"y":0,"opacity":1,"visible":true,"data":[0,0,0,42,0,0,0,0,0,0,0,0,0,0,0,0,0,0,0,0,0,0,0,0,0,0,0,0,0,0,0,0,0,0,0,0,0,0,0,0,0,0,33,34,0,0,0,45,46,0,0,0,0,0,40,0,0,0,0,0,0,0,35,36,0,0,0,0,0,0,0,0,0,0,41,0,39,0,0,0,0,0,0,0,0,0,0,0,0,0,0,0,0,0,0,0,0,0,0,0,0,0,0,0,0,0,0,0,0,0,0,0,0,0,0,0,0,0,0,0,0,0,0,0,0,0,0,0,0,0,0,0,0,0,0,0,0,0,0,0,0,0,0,0,0,0,0,0,0,0,0,0,0,0,0,0,0,0,0,0,0,0,0,0,55,0,0,0,0,0,0,0,0,0,0,0,0,43,0,0,0,0,0,0,56,0,0,0,0,0,0,0,0,0,0,0,0,44,0,0,0,0,0,0,0,0,0,0,0,0,0,0,0,0,0,0,0,0,0,0,0,0,0,0,0,0,0,0,0,0,0,0,0,0,0,0,0,0,0,0]},{"id":4,"name":"collision","type":"tilelayer","width":20,"height":12,"x":0,"y":0,"opacity":1,"visible":true,"data":[14,14,14,14,14,14,14,14,14,14,14,14,14,14,14,14,14,14,14,14,14,14,14,14,14,14,14,14,14,14,14,14,14,14,14,14,14,14,14,14,14,0,14,14,0,0,0,14,14,0,0,0,0,0,14,0,0,0,0,14,14,0,14,14,0,0,0,0,0,0,0,0,0,0,14,0,14,0,0,14,14,0,0,0,0,0,0,0,0,0,0,0,0,0,0,0,0,0,0,14,14,0,0,0,0,0,0,0,0,0,0,0,0,0,0,0,0,0,0,14,14,0,0,0,0,0,0,0,0,0,0,0,0,0,0,0,0,0,0,14,14,0,0,0,0,0,0,0,0,0,0,0,0,0,0,0,0,0,0,14,14,0,0,0,14,0,0,0,0,0,0,0,0,0,0,0,0,14,0,14,14,0,0,0,14,0,0,0,0,0,0,0,0,0,0,0,0,14,0,14,14,0,0,0,0,0,0,0,0,0,0,0,0,0,0,0,0,0,0,14,14,14,14,14,14,14,14,14,14,14,0,14,14,14,14,14,14,14,14,14]},{"id":5,"name":"markers","type":"objectgroup","x":0,"y":0,"opacity":1,"visible":true,"objects":[{"id":1,"name":"door","type":"door","x":160,"y":176,"width":16,"height":16},{"id":2,"name":"npc","type":"npc","x":160,"y":80,"width":16,"height":16}]}]}